site/static/docs/images/icons/left-arrow.svg

<svg fill="none" height="11" viewBox="0 0 11 11" width="11" xmlns="http://www.w3.org/2000/svg"><path clip-rule="evenodd" d="m5.78033 10.5303c-.29289.2929-.76777.2929-1.06066 0l-4.250002-4.24997c-.292891-.29289-.292891-.76777 0-1.06066l4.250002-4.250002c.29289-.292891.76777-.292891 1.06066 0 .29289.292892.29289.767772 0 1.060662l-2.96967 2.96967h7.43934c.4142 0 .75.33579.75.75s-.3358.75-.75.75h-7.43934l2.96967 2.9697c.29289.2929.29289.7677 0 1.0606z" fill="#0075ff" fill-rule="evenodd"/></svg>

<svg width="11" height="11" viewBox="0 0 11 11" fill="none" xmlns="http://www.w3.org/2000/svg">
<path fill-rule="evenodd" clip-rule="evenodd" d="M5.78033 10.5303C5.48744 10.8232 5.01256 10.8232 4.71967 10.5303L0.469668 6.28033C0.176777 5.98744 0.176777 5.51256 0.469668 5.21967L4.71967 0.969668C5.01256 0.676777 5.48744 0.676777 5.78033 0.969668C6.07322 1.26256 6.07322 1.73744 5.78033 2.03033L2.81066 5H10.25C10.6642 5 11 5.33579 11 5.75C11 6.16421 10.6642 6.5 10.25 6.5H2.81066L5.78033 9.4697C6.07322 9.7626 6.07322 10.2374 5.78033 10.5303Z" fill="#0075ff"/>
</svg>
